Numix-Light/24/status/qtox-invisible.svg

<?xml version="1.0" encoding="UTF-8" standalone="no"?>
<svg
   xmlns:dc="http://purl.org/dc/elements/1.1/"
   xmlns:cc="http://creativecommons.org/ns#"
   xmlns:rdf="http://www.w3.org/1999/02/22-rdf-syntax-ns#"
   xmlns:svg="http://www.w3.org/2000/svg"
   xmlns="http://www.w3.org/2000/svg"
   version="1.1"
   id="Layer_1"
   x="0px"
   y="0px"
   width="24"
   height="24"
   viewBox="-1 -1 24.533333 24.440367"
   enable-background="new 0 0 90 109"
   xml:space="preserve"><metadata
     id="metadata11"><rdf:RDF><cc:Work
         rdf:about=""><dc:format>image/svg+xml</dc:format><dc:type
           rdf:resource="http://purl.org/dc/dcmitype/StillImage" /><dc:title></dc:title></cc:Work></rdf:RDF></metadata><defs
     id="defs9" /><path
     id="path4145"
     transform="matrix(1.0222222,0,0,1.0222222,-1,-1.0464826)"
     d="M 12 4 C 9.7908611 3.9999996 8 5.7908604 8 8 L 8 10 L 6 10 A 0.99999993 1 0 0 0 5 11 L 5 19 A 0.99999993 1 0 0 0 6 20 L 18 20 A 0.99999993 1 0 0 0 19 19 L 19 11 A 0.99999993 1 0 0 0 18 10 L 16 10 L 16 8 C 16 5.7908604 14.209139 3.9999996 12 4 z M 12 6 C 13.104569 6 14 6.8954304 14 8 C 14 8.4712431 13.898786 8.8419751 13.765625 9.1074219 C 13.632464 9.3728688 13.337028 9.7268699 13 10 C 12.67052 10.267013 12 10.607422 12 10.607422 C 12 10.607422 12.305608 10.236256 12.429688 9.9511719 C 12.288644 9.9829321 12.144574 9.9999198 12 10 C 10.89543 10.000617 10 9.1045689 10 8 C 10 6.8954304 10.89543 5.9999998 12 6 z M 12 11 A 3.9999992 3.9999993 0 0 1 16 15 A 3.9999992 3.9999993 0 0 1 12 19 A 3.9999992 3.9999993 0 0 1 8 15 A 3.9999992 3.9999993 0 0 1 12 11 z M 11 12.173828 A 3.0000007 3.0000006 0 0 0 9 15 A 3.0000007 3.0000006 0 0 0 11 17.824219 L 11 12.173828 z M 13 12.175781 L 13 17.826172 A 3.0000007 3.0000006 0 0 0 15 15 A 3.0000007 3.0000006 0 0 0 13 12.175781 z "
     style="opacity:1;fill:#353535;fill-opacity:1;stroke-width:0.70866144;stroke-linecap:round;stroke-linejoin:round;stroke-miterlimit:4;stroke-dasharray:none;stroke-dashoffset:0" /><path
     id="ellipse3338"
     style="opacity:1;fill:#ffffff;fill-opacity:1"
     ry="2.5555549"
     rx="2.5555553"
     cy="14.79796"
     cx="11.266666" /><path
     id="ellipse3339"
     style="opacity:1;fill:#ffffff;fill-opacity:1"
     ry="3.0666659"
     rx="3.0666666"
     cy="14.286849"
     cx="11.266666" /><path
     id="ellipse3338-5"
     style="opacity:1;fill:#ffffff;fill-opacity:1"
     ry="2.5555549"
     rx="2.5555553"
     cy="14.79796"
     cx="11.266666"
     d="" /></svg>

<svg xmlns="http://www.w3.org/2000/svg" width="24" height="24" viewBox="-1 -1 24.533333 24.440367" style="enable-background:new 0 0 90 109">
 <path transform="matrix(1.0222222,0,0,1.0222222,-1,-1.0464826)" d="m 12 4 c -2.209 0 -4 1.791 -4 4 l 0 2 l -2 0 a 1 1 0 0 0 -1 1 l 0 8 a 1 1 0 0 0 1 1 l 12 0 a 1 1 0 0 0 1 -1 l 0 -8 a 1 1 0 0 0 -1 -1 l -2 0 l 0 -2 c 0 -2.209 -1.791 -4 -4 -4 z m 0 2 c 1.105 0 2 0.895 2 2 c 0 0.471 -0.101 0.842 -0.234 1.107 c -0.133 0.265 -0.429 0.619 -0.766 0.893 c -0.329 0.267 -1 0.607 -1 0.607 c 0 0 0.306 -0.371 0.43 -0.656 c -0.141 0.032 -0.285 0.049 -0.43 0.049 c -1.105 0.001 -2 -0.895 -2 -2 c 0 -1.105 0.895 -2 2 -2 z m 0 5 a 4 4 0 0 1 4 4 a 4 4 0 0 1 -4 4 a 4 4 0 0 1 -4 -4 a 4 4 0 0 1 4 -4 z m -1 1.174 a 3 3 0 0 0 -2 2.826 a 3 3 0 0 0 2 2.824 l 0 -5.65 z m 2 0.002 l 0 5.65 a 3 3 0 0 0 2 -2.826 a 3 3 0 0 0 -2 -2.824 z" style="stroke-dasharray:none;fill:#353535;opacity:1;stroke-miterlimit:4;fill-opacity:1;stroke-linecap:round;stroke-linejoin:round;stroke-width:0.709;stroke-dashoffset:0"/>
</svg>
